X: 1
T: M\'aire O'Keeffe
C: Otis Tomas
R: reel
Z: 2014 John Chambers <jc:trillian.mit.edu>
S: printed page of unknown origin from Concord Slow Scottish Session collection
M: C|
L: 1/8
K: D
B |\
AF-~F2 DEFA | dABF A2Bc | df-~f2 bafb | afdf eB-~B2 | AF-~F2 DEFA |
dABF A2Bc | df-~f2 bafb | afeg fdd :: B | Adfd edcd | (3(Bcd) AF DEFD |
B,EGB degb | afdf eB-~B2 | AF-~F2 DEFA | dABF A2Bc | df-~f2 bafb | afeg fdd :|
